build/img/eye.svg

<svg width="24" height="24" viewBox="0 0 24 24" fill="none" xmlns="http://www.w3.org/2000/svg">
<g clip-path="url(#clip0)">
<path fill-rule="evenodd" clip-rule="evenodd" d="M2.53895 12.4999C2.39977 12.3113 2.28168 12.1427 2.18515 12C2.28168 11.8573 2.39977 11.6887 2.53895 11.5001C2.99618 10.8806 3.67486 10.0547 4.55732 9.23106C6.33225 7.57445 8.84964 6 12 6C15.1504 6 17.6677 7.57445 19.4427 9.23106C20.3251 10.0547 21.0038 10.8806 21.4611 11.5001C21.6002 11.6887 21.7183 11.8573 21.8148 12C21.7183 12.1427 21.6002 12.3113 21.4611 12.4999C21.0038 13.1194 20.3251 13.9453 19.4427 14.7689C17.6677 16.4255 15.1504 18 12 18C8.84964 18 6.33225 16.4255 4.55732 14.7689C3.67486 13.9453 2.99618 13.1194 2.53895 12.4999ZM23.8678 11.5031C23.868 11.5035 23.8682 11.5039 23 12C23.8682 12.4961 23.868 12.4965 23.8678 12.4969L23.8673 12.4977L23.866 12.5L23.8623 12.5064L23.8505 12.5267C23.8406 12.5435 23.8268 12.5668 23.8091 12.5961C23.7736 12.6548 23.7224 12.7378 23.6556 12.8415C23.5223 13.049 23.3265 13.3403 23.0702 13.6876C22.5587 14.3806 21.7999 15.3047 20.8073 16.2311C18.8323 18.0745 15.8496 20 12 20C8.15036 20 5.16775 18.0745 3.19268 16.2311C2.20014 15.3047 1.44132 14.3806 0.929801 13.6876C0.673483 13.3403 0.477733 13.049 0.344368 12.8415C0.277649 12.7378 0.226429 12.6548 0.190941 12.5961C0.173194 12.5668 0.15937 12.5435 0.149499 12.5267L0.137656 12.5064L0.133963 12.5L0.132674 12.4977L0.132169 12.4969C0.131955 12.4965 0.131757 12.4961 1 12C0.131757 11.5039 0.131955 11.5035 0.132169 11.5031L0.132674 11.5023L0.133963 11.5L0.137656 11.4936L0.149499 11.4733C0.15937 11.4565 0.173194 11.4332 0.190941 11.4039C0.226429 11.3452 0.277649 11.2622 0.344368 11.1585C0.477733 10.951 0.673483 10.6597 0.929801 10.3124C1.44132 9.61937 2.20014 8.69532 3.19268 7.76894C5.16775 5.92555 8.15036 4 12 4C15.8496 4 18.8323 5.92555 20.8073 7.76894C21.7999 8.69532 22.5587 9.61937 23.0702 10.3124C23.3265 10.6597 23.5223 10.951 23.6556 11.1585C23.7224 11.2622 23.7736 11.3452 23.8091 11.4039C23.8268 11.4332 23.8406 11.4565 23.8505 11.4733L23.8623 11.4936L23.866 11.5L23.8673 11.5023L23.8678 11.5031ZM23 12L23.8682 11.5039C24.0439 11.8113 24.0439 12.1887 23.8682 12.4961L23 12ZM0.131757 11.5039L1 12L0.131757 12.4961C-0.043919 12.1887 -0.043919 11.8113 0.131757 11.5039ZM10 12C10 10.8954 10.8954 10 12 10C13.1046 10 14 10.8954 14 12C14 13.1046 13.1046 14 12 14C10.8954 14 10 13.1046 10 12ZM12 8C9.79086 8 8 9.79086 8 12C8 14.2091 9.79086 16 12 16C14.2091 16 16 14.2091 16 12C16 9.79086 14.2091 8 12 8Z" fill="#151515"/>
</g>
<defs>
<clipPath id="clip0">
<rect width="24" height="24" fill="white"/>
</clipPath>
</defs>
</svg>

<svg width="24" height="24" viewBox="0 0 24 24" fill="none" xmlns="http://www.w3.org/2000/svg"><g clip-path="url(#clip0)"><path fill-rule="evenodd" clip-rule="evenodd" d="M2.539 12.5a14.61 14.61 0 01-.354-.5 16.727 16.727 0 012.372-2.769C6.332 7.574 8.85 6 12 6c3.15 0 5.668 1.574 7.443 3.231A16.736 16.736 0 0121.815 12a16.734 16.734 0 01-2.372 2.769C17.668 16.425 15.15 18 12 18c-3.15 0-5.668-1.575-7.443-3.231a16.724 16.724 0 01-2.018-2.27zm21.329-.997L23 12l.868.497-.002.003-.004.006-.011.02a7.247 7.247 0 01-.195.316c-.134.207-.33.498-.586.846a18.726 18.726 0 01-2.263 2.543C18.832 18.074 15.85 20 12 20c-3.85 0-6.832-1.925-8.807-3.769A18.73 18.73 0 01.93 13.688a16.07 16.07 0 01-.74-1.092 6.046 6.046 0 01-.04-.07l-.012-.02-.004-.006-.001-.002v-.001L1 12a107.85 107.85 0 01-.868-.497l.002-.003.004-.006.011-.02.042-.07a16.07 16.07 0 01.739-1.091 18.728 18.728 0 012.263-2.544C5.168 5.926 8.15 4 12 4c3.85 0 6.832 1.926 8.807 3.769.993.926 1.752 1.85 2.263 2.543a16.038 16.038 0 01.74 1.092l.04.07.012.02.004.006.001.002v.001zM23 12l.868-.496a1 1 0 010 .992L23 12zM.132 11.504L1 12l-.868.496a1 1 0 010-.992zM10 12a2 2 0 114 0 2 2 0 01-4 0zm2-4a4 4 0 100 8 4 4 0 000-8z" fill="#151515"/></g><defs><clipPath id="clip0"><path fill="#fff" d="M0 0h24v24H0z"/></clipPath></defs></svg>
